svg/fluentui-system-icons/ic_fluent_call_add_16_regular.svg

<svg width="16" height="16" viewBox="0 0 16 16" fill="none" xmlns="http://www.w3.org/2000/svg">
<path d="M12 1.5C12 1.22386 12.2239 1 12.5 1C12.7761 1 13 1.22386 13 1.5V4H15.5C15.7761 4 16 4.22386 16 4.5C16 4.77614 15.7761 5 15.5 5H13V7.5C13 7.77614 12.7761 8 12.5 8C12.2239 8 12 7.77614 12 7.5V5H9.5C9.22386 5 9 4.77614 9 4.5C9 4.22386 9.22386 4 9.5 4H12V1.5ZM4.76512 2.45585C3.40963 2.8704 2.52302 4.00156 2.71358 5.25785C2.89789 6.47286 3.32481 8.02213 4.26776 9.6431C5.20852 11.2603 6.33466 12.4029 7.29155 13.1718C8.28413 13.9694 9.71011 13.7713 10.7472 12.8044C11.1263 12.4509 11.1651 11.8635 10.8356 11.4633L10.0442 10.5019C9.78505 10.1872 9.36079 10.0612 8.9719 10.1836L7.29891 10.7102C7.13138 10.7629 6.94847 10.7239 6.81706 10.6074L6.77693 10.5707C6.75349 10.549 6.72052 10.5178 6.67981 10.4779C6.59848 10.3982 6.48575 10.2833 6.35605 10.1387C6.09803 9.85105 5.76599 9.43817 5.48099 8.94453C5.19599 8.4509 5.00445 7.9569 4.88432 7.58961C4.82393 7.40498 4.7808 7.24992 4.75247 7.13964C4.73829 7.08445 4.72778 7.04031 4.72064 7.00912L4.70915 6.95689C4.67394 6.78483 4.73141 6.60606 4.86084 6.48734L6.15336 5.30177C6.4538 5.02619 6.55687 4.5958 6.41384 4.21401L5.97927 3.05404C5.79613 2.5652 5.26431 2.30318 4.76512 2.45585ZM6.82932 6.03871L5.75663 7.02264C5.77746 7.09632 5.80336 7.18271 5.83477 7.27875C5.94098 7.60349 6.10703 8.02886 6.34702 8.44453C6.58701 8.86021 6.87237 9.2167 7.1005 9.47105C7.16796 9.54628 7.22982 9.6119 7.28322 9.66678L8.67167 9.22977C9.44945 8.98496 10.298 9.23684 10.8162 9.86636L11.6077 10.8278C12.2729 11.6359 12.1947 12.822 11.4292 13.5358C10.1393 14.7383 8.15263 15.1465 6.66518 13.9513C5.63026 13.1198 4.41625 11.8871 3.40338 10.1459C2.38638 8.39767 1.92456 6.7241 1.72489 5.40782C1.43899 3.52302 2.79003 2.01417 4.47266 1.49957C5.47711 1.19238 6.54721 1.7196 6.91571 2.70321L7.35028 3.86319C7.63634 4.62676 7.43021 5.48754 6.82932 6.03871Z" fill="#212121"/>
</svg>

<svg xmlns="http://www.w3.org/2000/svg" width="16" height="16"><path d="M12 1.5a.5.5 0 0 1 1 0V4h2.5a.5.5 0 0 1 0 1H13v2.5a.5.5 0 0 1-1 0V5H9.5a.5.5 0 0 1 0-1H12V1.5Zm-7.235.956C3.41 2.87 2.523 4.002 2.714 5.258a12.432 12.432 0 0 0 1.554 4.385 12.732 12.732 0 0 0 3.024 3.529c.992.797 2.418.6 3.455-.368a.981.981 0 0 0 .089-1.34l-.792-.962a1 1 0 0 0-1.072-.318l-1.673.526a.5.5 0 0 1-.482-.103l-.04-.036a7.342 7.342 0 0 1-.42-.432 7.203 7.203 0 0 1-.876-1.194 7.265 7.265 0 0 1-.76-1.936l-.012-.052a.501.501 0 0 1 .152-.47l1.292-1.185a1 1 0 0 0 .26-1.088l-.434-1.16a.988.988 0 0 0-1.214-.598ZM6.83 6.039l-1.072.984a6.619 6.619 0 0 0 .59 1.422 6.267 6.267 0 0 0 .936 1.222l1.389-.437a2 2 0 0 1 2.144.636l.792.962a1.981 1.981 0 0 1-.179 2.708c-1.29 1.202-3.276 1.61-4.764.415a13.73 13.73 0 0 1-3.262-3.805 13.432 13.432 0 0 1-1.678-4.738C1.439 3.523 2.79 2.014 4.473 1.5a1.988 1.988 0 0 1 2.443 1.203l.434 1.16a2 2 0 0 1-.52 2.176Z"/></svg>
